X:1
T:Symphony No. 5 in C Sharp Minor
T:Fourth Movement Excerpt, "Adagietto"
T:Gustav Mahler
T:Arranger not credited on published score
%%score { ( 1 4 ) | ( 2 3 ) }
L:1/8
Q:1/4=48
M:4/4
K:F
V:1 treble nm="Piano"
V:4 treble 
V:2 bass 
V:3 bass 
V:1
"^Sehr langsam" z8 | z4[Q:1/4=36]"^molto rit." z!p! CDE | E2 F2- FFBA[Q:1/4=48]"^a tempo" | %3
 A2 G2- GGAB | c3 c d3 c | c2 =B2- B_BdB | B2 A2- AcB^F | ^FG B2- B!p!AG=F | [CFG]8 | %9
!pp! [CFG]2 C2[Q:1/4=60]!p! A4 |[Q:1/4=72] [A,CE]4 F4- | F2 F2 B2 A2 | A4 ^G4- | %13
!pp! G2!p! ^G2 [Ec]2 [D=B]2 | =B4- B!p!A=GF | EDB,G, [A,C]4 | z!<(! A, ^G,A,!<)!!p! C4- | %17
 C3 C [^G,C]2 =B,2 | A,8 |[Q:1/4=66] A,8 | A,C/ z/ C6 | [Cc]4 c3 B | B2 A2- ABcd | [ce]4- [ce]fcA | %24
 A2 G4 ^FG | !arpeggio![EAd]3 A AB !arpeggio![=F=B=e-]2 |!<(! edc^G [cf]3 c | %27
 BA!arpeggio![A_d=g]f[Q:1/4=60] !tenuto!d!tenuto!A!<)!!mf!!tenuto!G!tenuto!F | %28
 _E!f!_D B, z!ff!{/FA} a2- a/f/c/=D/ | [FA]2- [FA]/F/D/A,/ z f cA | _dcBC G4- | %31
 G2[Q:1/4=66]!p! [CF]4!p!{/GF} EF | [B,D^F]2 G2 GABd | [=F=B]2 [Fc]4 EF | ^FG [DB]2 [DB]G=FE | %35
 E4!p! F4 | z2 C2 D2 E2 | E4 F4- |!pp! F2!p! F2 G2 A2 |!p! [CDFA]4!p! G4- |!pp! G2!p! G2 A2 B2 | %41
 c3 c d3 c | c2 =B2- B_BdB | BA c4 B^F | [D^F]2 G[_DB] BAG=F | [FG]4 G4 |!p! ^CD F2 FD=C=B, | E8 | %48
 c8[Q:1/4=60] |!p! c6 B2 |[Q:1/4=66]"^a tempo" B2 A2- ABcd | [ce]4 cfcA | A2 G4 ^FG | %53
 !arpeggio![_EAd]3 A AB [=F=B=e]2- | [FBe]dc^G [cf]3 c | BA!<(!=gf =c!mf!AGF!<)! | %56
!f!!<(! !arpeggio![a_d'f'a']4 !arpeggio![a=d'f'a']4!<)! | %57
!ff![Q:1/4=60] z2 !>![ff']2 !>![cc']2 !>![Aa]2 | !>!g4 f4- | %59
 f2 !tenuto!d2 !tenuto![Ac]2 !tenuto!A2 | [A,CG]6 [A,CF]2- | [A,CF]2 !>!C4 B,2 |[Q:1/4=66] B,8 | %63
 B,8 | A,8 |[Q:1/4=48] !fermata![F,A,]8 |] %66
V:2
!pp!!ped! C8- | C4!ped-up!!ped! (3CA,C, (3A,,C,, z!ped-up! | %2
!ped! (3F,,C,A, CC, (3z C,A,!ped-up!!ped! (3z CF!ped-up! | %3
!ped! (3C,C,,G,, (3C,G,C!ped-up! F,2 B,,2 |!ped! (3A,,C,F, C2!ped-up!!ped! (3_A,,C,F, C2!ped-up! | %5
!ped! (3G,,G,,,G,, (3D,F,D!ped-up! F,2 ^C2 |!ped! (3_G,,,_G,,C, (3_E,C_E!ped-up! A,2 D,,2 | %7
!ped! (3G,,D,B, z =E,,!ped-up! F,,2 A,,2 |!ped! (3C,,C,G, CC, (3z G,C F,G,!ped-up! | %9
!ped! (3z C,F, G,C,!ped-up! C,4 |!ped! F,,,F,,C,A,!ped-up! C2 C,,2 | %11
 C,2 A,B,!ped! F,2 C,2!ped-up! |!ped! F,,F,DF, D,F,,=B,,F,!ped-up! | %13
!ped! =B,F,DF,!ped-up!!ped! z ^G, E,2!ped-up! |!ped!!<(! F,8!ped-up!!<)! | %15
!ped!!>(! [D,,B,,F,]4!ped-up!!>)!!ped! E,2 A,,E,!ped-up! |!ped! E,4!ped-up! [^D,^F,]4 | %17
 ^D,^F, A,2 [E,,=B,,=D,]2 z2 |!pp!!ped! E,2 E,4 D,E,!ped-up! | F,8 | [A,,E,]8 | %21
!p! C,8!ped!!ped-up! |!ped! F,,C,F,C F2!ped-up! C2 |!ped! !>!F,,C,F,C F2!ped-up! C,2 | %24
!ped! B,,,4 B,,F,!ped-up! D,2 | [^F,,D,]2!ped! F,,F,!ped-up! [G,B,]2 ^G,,F, | %26
!ped!"^cresc. poco a poco" D,2 E,,2!ped-up!!ped! A,,C,F,!ped-up!C | %27
!ped! F,2 _D2!ped-up!!ped! [B,,F,D]2 z2!ped-up! | %28
!ped!"^molto cresc." z4!ped-up!!ped!!ff! C/F,/C,/C,,/ z2!ped-up! | %29
!ped! A,/C/A,/F,/ C,2!ped-up!!ped! [C,A,]4!ped-up! | %30
!ped!!f!"^dimin."!>(! [C,B,]4!ped-up!!ped! (3[C,B,]C,,C, (3B,CG,!>)!!ped-up! | %31
 [C,B,]2!ped! F,,,C,, F,,C,!ped-up!!pp! [F,A,C]2 | %32
!mp!!ped! =F,,!pp!C,B,D!ped-up!!ped! G,2 z2!ped-up! | %33
!mp!!ped! F,,!pp!C,!ped-up!!ped!A,C A,2!ped-up! C2 | B,4!ped! F,,=C, [G,B,C]2!ped-up! | %35
 z4!ped! z!pp! CA,C,!ped-up! |!ped! (3z CA, (3C,A,,C,, (3CA,C, (3A,,C,, z!ped-up! | %37
!ped! z F,C,A, C2 C,2!ped-up! |!ped! z C,A,C z CFA,!ped-up! | %39
!ped! z C,G,,C,!ped-up!!ped! G,CDF!ped-up! |!ped! [C,,C,]4!ped-up!!ped! [B,,,B,,]4!ped-up! | %41
!ped! (3A,,,C,,C,!ped-up! C2!ped! (3_A,,,C,,C,!ped-up! C2 | %42
!ped! (3G,,G,,,G,, (3D,F,D!ped-up!!ped! F2 _D2!ped-up! | %43
!ped! (3_G,,,_G,,C,!ped-up!!ped! (3_E,C_E!ped-up! A,2 D,,2 | %44
!ped! (3G,,D,G,!ped-up! [G,D]E,!ped! =F,2 [C,A,]2!ped-up! | %45
!ped! (3C,C,,G,, (3C,G,C!ped-up!!ped! (3G,,C,G, C,,2!ped-up! | %46
!ped! (3C,,G,,=C,!ped-up! (3G,=CF,!ped! (3z G,C!ped-up! (3F,F,G, | %47
!ped! (3C,,G,,C, (3z G,E, z2!ped-up! G,2 |!ped! C,6 C,2!ped-up! | %49
 [C,C]4!ped! [A,,,A,,]2 [G,,,G,,]2!ped-up! |!ped! [F,,,F,,]C,F,C!ped-up! F2 C2 | %51
!ped! A,,C,A,C-!ped-up! C2 C2 |!ped! B,,,4 B,,F,!ped-up! F,2 | %53
"^cresc."!ped! [^F,,D,^F,]4!ped-up! [G,,G,]2!mp!!ped! [^G,,^G,]2 | %54
 ^G,,2 E,,2!ped-up!!ped! (3A,,F,A, (3CF,A,!ped-up! | %55
 [A,,A,]4!mf!!ped! (3B,,,F,,B,, (3F,B,_D!ped-up! | %56
!ped! [B,_DA]4!ped-up! [=B,=DA]2!ped! D/F/A,/F,/!ped-up! | %57
!ped! !arpeggio![C,F,A,C]6!ped-up! [D,D]2- | %58
 [D,D]2!ped! !>![C,C]2!f! !>![A,,A,]2!ped-up!!ff! !>![G,,G,]2 |!ped! [C,,C,]6!ped-up! [D,,D,]2- | %60
!ped! [D,,D,]4 [C,,C,]4!ped-up! |!f!!ped! C,8!ped-up! |"^molto dim." [G,,C,]8 |!mp! [F,,C,]8 | %64
!p! [F,,C,]8 |!pp! !fermata![F,,C,]8 |] %66
V:3
 z4 A,CA,C, | (3z CA, (3C,A,,C,, x4 | x8 | x8 | x8 | x8 | x8 | x8 | x8 | x8 | x8 | x8 | D,4 x4 | %13
 D,4 E,,4 | F,,2 z2 z4 | x4 E,,4 | E,,4- E,,E,,A,,C, | x8 | A,,8 | A,,C,/ z/ C,4 =B,, z | x8 | %21
 A,,4 A,,2 G,,2 | !>!F,,4 x4 | x8 | x8 | x8 | x8 | x8 | x8 | x8 | x8 | x8 | x8 | x8 | x8 | %35
 [F,,C,]8 | F,,8 | F,,8 | F,,8 | x8 | x8 | x8 | x8 | x8 | x8 | x8 | x8 | x8 | x8 | x8 | x8 | x8 | %52
 x8 | x8 | x8 | x8 | x8 | x8 | x8 | x8 | x8 | A,,4 G,,4 | x8 | x8 | x8 | x8 |] %66
V:4
 x8 | x8 | [A,C]6 z2 | [DF]6 [DF]2 | [CF]8 | [DF]6 F2 | [C_E]8 | [B,D]3!pp! _D C4 | x8 | x4 D2 E2 | %10
 x8 | x4 [CF]4 | [=B,F]8 | F4 ^G4 | ^G2!pp! D2 C4 | _B,2 B,2 x4 | x8 | x8 | x8 | x8 | x8 | %21
 x4 D2 E2 | F4 x4 | x8 | [CF]6 D2 | x4 [DE]2 [F=B]2- | [FB]2 [DF]2 ^G2 A2 | F2 [A_d]2 x4 | x8 | %29
 x4 C4 | x8 | x8 | x8 | x8 | C x7 | A,8 | x2 A,4 G,2 | [A,C]8 | [A,C]8 | x8 | [CDF]4 [CDF]4 | %41
 [CF]4 [F_A]4 | !arpeggio![DF]6 F2 | _E8 | x4 C4 | x4 E2!pp! =B,C | A,6 x2 | =B,4 C4 | %48
 C4!pp!"^rit." C4 | D4 E4 | F4 x4 | x8 | [^CF]6 D2 | x4 [D=E]2 x2 | x2 [DF]2 ^G2 A2 | %55
 C2 [A^c]2 x4 | x8 | !arpeggio![Ac]8 | [Ac]8 | [Ac]4 C4 | x8 | x8 | x8 | x8 | x8 | x8 |] %66

